Hatter-kde/actions/22/format-number-percent.svg

<svg xmlns="http://www.w3.org/2000/svg" viewBox="0 0 22 22">
  <defs id="defs3051">
    <style type="text/css" id="current-color-scheme">
      .ColorScheme-Text {
        color:#363636;
      }
      </style>
  </defs>
 <path 
    style="fill:currentColor;fill-opacity:1;stroke:none" 
    d="M 16.480469 2.6113281 L 4.4804688 18.609375 L 5.0507812 19.037109 L 5.40625 19.310547 L 5.4101562 19.306641 L 5.5195312 19.388672 L 17.519531 3.3886719 L 17.050781 3.0371094 L 16.59375 2.6855469 L 16.589844 2.6933594 L 16.480469 2.6113281 z M 6.5 3.9980469 C 4.567 3.9980469 3 5.5650469 3 7.4980469 C 3 9.4310469 4.567 10.998047 6.5 10.998047 C 8.433 10.998047 10 9.4310469 10 7.4980469 C 10 5.5650469 8.433 3.9980469 6.5 3.9980469 z M 6.5 4.9980469 C 7.88071 4.9980469 9 6.1173369 9 7.4980469 C 9 8.8787569 7.88071 9.9980469 6.5 9.9980469 C 5.11929 9.9980469 4 8.8787569 4 7.4980469 C 4 6.1173369 5.11929 4.9980469 6.5 4.9980469 z M 15.5 11.998047 C 13.567 11.998047 12 13.565047 12 15.498047 C 12 17.431047 13.567 18.998047 15.5 18.998047 C 17.433 18.998047 19 17.431047 19 15.498047 C 19 13.565047 17.433 11.998047 15.5 11.998047 z M 15.5 12.998047 C 16.88071 12.998047 18 14.117337 18 15.498047 C 18 16.878757 16.88071 17.998047 15.5 17.998047 C 14.11929 17.998047 13 16.878757 13 15.498047 C 13 14.117337 14.11929 12.998047 15.5 12.998047 z "
    class="ColorScheme-Text"
    />  
</svg>

<?xml version="1.0" encoding="UTF-8"?>
<svg viewBox="0 0 22 22" xmlns="http://www.w3.org/2000/svg">
 <defs id="defs3051">
  <style id="current-color-scheme" type="text/css">.ColorScheme-Text {
        color:#363636;
      }</style>
 </defs>
 <path class="ColorScheme-Text" d="m16.48 2.6113-12 15.998 0.57031 0.42773 0.35547 0.27344 0.0039062-0.003906 0.10938 0.082031 12-16-0.46875-0.35156-0.45703-0.35156-0.003906 0.0078125-0.10938-0.082031zm-9.9805 1.3867c-1.933 0-3.5 1.567-3.5 3.5s1.567 3.5 3.5 3.5 3.5-1.567 3.5-3.5-1.567-3.5-3.5-3.5zm0 1c1.3807 0 2.5 1.1193 2.5 2.5s-1.1193 2.5-2.5 2.5-2.5-1.1193-2.5-2.5 1.1193-2.5 2.5-2.5zm9 7c-1.933 0-3.5 1.567-3.5 3.5s1.567 3.5 3.5 3.5 3.5-1.567 3.5-3.5-1.567-3.5-3.5-3.5zm0 1c1.3807 0 2.5 1.1193 2.5 2.5s-1.1193 2.5-2.5 2.5-2.5-1.1193-2.5-2.5 1.1193-2.5 2.5-2.5z" fill="currentColor"/>
</svg>
